assets/nicubunu-Card-backs-grid-blue.svg

<?xml version="1.0" encoding="UTF-8" standalone="no"?>
<!-- Created with Inkscape (http://www.inkscape.org/) -->

<svg
   id="svg2"
   viewBox="0 0 140 190"
   sodipodi:version="0.32"
   version="1.0"
   inkscape:version="1.4.3 (0d15f75042, 2025-12-25)"
   y="0"
   x="0"
   sodipodi:docname="nicubunu-Card-backs-grid-blue.svg"
   xmlns:inkscape="http://www.inkscape.org/namespaces/inkscape"
   xmlns:sodipodi="http://sodipodi.sourceforge.net/DTD/sodipodi-0.dtd"
   xmlns:xlink="http://www.w3.org/1999/xlink"
   xmlns="http://www.w3.org/2000/svg"
   xmlns:svg="http://www.w3.org/2000/svg"
   xmlns:rdf="http://www.w3.org/1999/02/22-rdf-syntax-ns#"
   xmlns:cc="http://creativecommons.org/ns#"
   xmlns:dc="http://purl.org/dc/elements/1.1/">
  <sodipodi:namedview
     id="base"
     bordercolor="#666666"
     inkscape:window-x="0"
     inkscape:window-y="0"
     pagecolor="#ffffff"
     inkscape:zoom="3.8210526"
     inkscape:pageshadow="2"
     borderopacity="1.0"
     inkscape:current-layer="svg2"
     inkscape:cx="86.494491"
     inkscape:cy="82.045455"
     inkscape:window-height="1142"
     inkscape:pageopacity="0.0"
     inkscape:window-width="1920"
     inkscape:showpageshadow="2"
     inkscape:pagecheckerboard="0"
     inkscape:deskcolor="#d1d1d1"
     inkscape:window-maximized="1" />
  <defs
     id="defs3">
    <pattern
       inkscape:collect="always"
       xlink:href="#pattern10642"
       id="pattern1"
       patternTransform="matrix(0.90397765,0,0,1,13.655687,-5)" />
    <linearGradient
       id="linearGradient8303">
      <stop
         id="stop8314"
         style="stop-color:#000086"
         offset="0" />
      <stop
         id="stop8316"
         style="stop-color:#005aff"
         offset="1" />
    </linearGradient>
    <linearGradient
       id="linearGradient4853"
       y2="128.7"
       gradientUnits="userSpaceOnUse"
       x2="109"
       gradientTransform="translate(0,-1)"
       y1="63.1"
       x1="2">
      <stop
         id="stop2062"
         style="stop-color:#ebf0d0"
         offset="0" />
      <stop
         id="stop2064"
         style="stop-color:#ffffeb"
         offset="1" />
    </linearGradient>
    <linearGradient
       id="linearGradient8318"
       y2="18.728"
       xlink:href="#linearGradient8303"
       gradientUnits="userSpaceOnUse"
       x2="36.52"
       gradientTransform="matrix(0.77221387,0,0,1.1706,0.09602235,0)"
       y1="146.62"
       x1="138.23" />
    <linearGradient
       id="linearGradient9086"
       y2="140.45"
       xlink:href="#linearGradient8303"
       gradientUnits="userSpaceOnUse"
       x2="146.4"
       gradientTransform="matrix(0.77323536,0,0,1.1691,0.09602235,0)"
       y1="17.153"
       x1="22.029" />
    <pattern
       id="pattern10642"
       width="14.142157"
       patternUnits="userSpaceOnUse"
       patternTransform="translate(15 -5)"
       height="13.750009">
      <g
         id="g10644"
         style="fill:#ffffff"
         transform="translate(31.25 -2.9289)">
        <rect
           id="rect10646"
           transform="rotate(45)"
           height="5"
           width="5"
           y="21.668"
           x="-17.526" />
        <rect
           id="rect10648"
           transform="rotate(45)"
           height="5"
           width="5"
           y="26.391"
           x="-12.803" />
        <rect
           id="rect10650"
           transform="rotate(45)"
           height="5"
           width="5"
           y="16.668"
           x="-12.526" />
        <rect
           id="rect10652"
           transform="rotate(45)"
           height="5"
           width="5"
           y="21.391"
           x="-7.8033" />
      </g>
    </pattern>
  </defs>
  <g
     id="g5630"
     inkscape:export-filename="back.png"
     inkscape:export-xdpi="101.5873"
     inkscape:export-ydpi="101.5873"
     transform="matrix(0.90397764,0,0,1,0.09602236,0)">
    <path
       id="rect2070"
       style="fill:#000000;fill-opacity:0.49804"
       d="m 21,5 h 103 c 8.86,0 16,7.136 16,16 v 153 c 0,8.86 -7.14,16 -16,16 H 21 C 12.136,190 5,182.86 5,174 V 21 C 5,12.136 12.136,5 21,5 Z" />
    <path
       id="rect1300"
       style="fill:#ffffff"
       d="m 17,1 h 103 c 8.86,0 16,7.136 16,16 v 153 c 0,8.86 -7.14,16 -16,16 H 17 C 8.136,186 1,178.86 1,170 V 17 C 1,8.136 8.136,1 17,1 Z" />
    <path
       id="path5624"
       style="fill:#c7891f"
       d="m 19,3 h 103 c 8.86,0 16,7.136 16,16 v 153 c 0,8.86 -7.14,16 -16,16 H 19 C 10.136,188 3,180.86 3,172 V 19 C 3,10.136 10.136,3 19,3 Z" />
    <path
       id="rect1306"
       style="fill:url(#linearGradient4853)"
       d="m 18,2 h 103 c 8.86,0 16,7.136 16,16 v 153 c 0,8.86 -7.14,16 -16,16 H 18 C 9.136,187 2,179.86 2,171 V 18 C 2,9.136 9.136,2 18,2 Z" />
  </g>
  <path
     id="path1385"
     style="fill:url(#linearGradient8318);stroke-width:0.950777"
     d="m 20.134495,10 h 85.347245 c 7.34934,0 13.26134,6.541 13.26134,14.667 v 140.25 c 0,8.12 -5.912,14.66 -13.26134,14.66 H 20.134495 c -7.345723,0 -13.2586403,-6.54 -13.2586403,-14.66 V 24.667 c 0,-8.129 5.9129173,-14.67 13.2586403,-14.67 z" />
  <path
     id="path9846"
     style="fill:url(#pattern1);stroke-width:0.950777"
     d="m 20.134495,10 h 85.347245 c 7.34934,0 13.26134,6.541 13.26134,14.667 v 140.25 c 0,8.12 -5.912,14.66 -13.26134,14.66 H 20.134495 c -7.345723,0 -13.2586403,-6.54 -13.2586403,-14.66 V 24.667 c 0,-8.129 5.9129173,-14.67 13.2586403,-14.67 z" />
  <path
     id="path2154"
     style="fill:url(#linearGradient9086);stroke-width:0.950777"
     d="m 20.124551,9.375 c -7.648555,0 -13.8136824,6.82 -13.8136824,15.281 v 140.25 c 0,8.46 6.1651274,15.31 13.8136824,15.31 h 85.366229 c 7.64764,0 13.82182,-6.85 13.82182,-15.31 V 24.656 c 0,-8.465 -6.17418,-15.285 -13.82182,-15.285 H 20.124551 Z m 0,1.25 h 85.366229 c 7.04198,0 12.6828,6.241 12.6828,14.031 v 140.25 c 0,7.79 -5.64082,14.06 -12.6828,14.06 H 20.124551 c -7.041986,0 -12.6837103,-6.27 -12.6837103,-14.06 V 24.656 c 0,-7.794 5.6417243,-14.035 12.6837103,-14.035 z" />
  <metadata
     id="metadata1">
    <rdf:RDF>
      <cc:Work>
        <dc:format>image/svg+xml</dc:format>
        <dc:type
           rdf:resource="http://purl.org/dc/dcmitype/StillImage" />
        <cc:license
           rdf:resource="http://creativecommons.org/licenses/publicdomain/" />
        <dc:publisher>
          <cc:Agent
             rdf:about="http://openclipart.org/">
            <dc:title>Openclipart</dc:title>
          </cc:Agent>
        </dc:publisher>
        <dc:title>Card backs: grid blue</dc:title>
        <dc:date>2009-03-23T13:56:40</dc:date>
        <dc:description>playing card backs for the &quot;Ornamental&quot;, &quot;White&quot;, &quot;Simple&quot; and &quot;Bordered&quot; sets</dc:description>
        <dc:source>https://openclipart.org/detail/23034/card-backs:-grid-blue-by-nicubunu</dc:source>
        <dc:creator>
          <cc:Agent>
            <dc:title>nicubunu</dc:title>
          </cc:Agent>
        </dc:creator>
        <dc:subject>
          <rdf:Bag>
            <rdf:li>bordered deck</rdf:li>
            <rdf:li>card</rdf:li>
            <rdf:li>cards</rdf:li>
            <rdf:li>deck</rdf:li>
            <rdf:li>gambling</rdf:li>
            <rdf:li>game</rdf:li>
            <rdf:li>ornamental deck</rdf:li>
            <rdf:li>play</rdf:li>
            <rdf:li>playing cards</rdf:li>
            <rdf:li>simple deck</rdf:li>
            <rdf:li>white deck</rdf:li>
          </rdf:Bag>
        </dc:subject>
      </cc:Work>
      <cc:License
         rdf:about="http://creativecommons.org/licenses/publicdomain/">
        <cc:permits
           rdf:resource="http://creativecommons.org/ns#Reproduction" />
        <cc:permits
           rdf:resource="http://creativecommons.org/ns#Distribution" />
        <cc:permits
           rdf:resource="http://creativecommons.org/ns#DerivativeWorks" />
      </cc:License>
    </rdf:RDF>
  </metadata>
</svg>

<?xml version="1.0" encoding="UTF-8" standalone="no"?>
<!-- Created with Inkscape (http://www.inkscape.org/) -->

<svg
   id="svg2"
   viewBox="0 0 140 190"
   sodipodi:version="0.32"
   version="1.0"
   inkscape:version="1.4.3 (0d15f75042, 2025-12-25)"
   y="0"
   x="0"
   sodipodi:docname="nicubunu-Card-backs-grid-blue.svg"
   xmlns:inkscape="http://www.inkscape.org/namespaces/inkscape"
   xmlns:sodipodi="http://sodipodi.sourceforge.net/DTD/sodipodi-0.dtd"
   xmlns:xlink="http://www.w3.org/1999/xlink"
   xmlns="http://www.w3.org/2000/svg"
   xmlns:svg="http://www.w3.org/2000/svg"
   xmlns:rdf="http://www.w3.org/1999/02/22-rdf-syntax-ns#"
   xmlns:cc="http://creativecommons.org/ns#"
   xmlns:dc="http://purl.org/dc/elements/1.1/">
  <sodipodi:namedview
     id="base"
     bordercolor="#666666"
     inkscape:window-x="0"
     inkscape:window-y="0"
     pagecolor="#ffffff"
     inkscape:zoom="3.8210526"
     inkscape:pageshadow="2"
     borderopacity="1.0"
     inkscape:current-layer="svg2"
     inkscape:cx="86.625345"
     inkscape:cy="82.045455"
     inkscape:window-height="1022"
     inkscape:pageopacity="0.0"
     inkscape:window-width="1920"
     inkscape:showpageshadow="2"
     inkscape:pagecheckerboard="0"
     inkscape:deskcolor="#d1d1d1"
     inkscape:window-maximized="1" />
  <defs
     id="defs3">
    <linearGradient
       id="linearGradient8303">
      <stop
         id="stop8314"
         style="stop-color:#000086"
         offset="0" />
      <stop
         id="stop8316"
         style="stop-color:#005aff"
         offset="1" />
    </linearGradient>
    <linearGradient
       id="linearGradient4853"
       y2="128.7"
       gradientUnits="userSpaceOnUse"
       x2="109"
       gradientTransform="translate(0 -1)"
       y1="63.1"
       x1="2">
      <stop
         id="stop2062"
         style="stop-color:#ebf0d0"
         offset="0" />
      <stop
         id="stop2064"
         style="stop-color:#ffffeb"
         offset="1" />
    </linearGradient>
    <linearGradient
       id="linearGradient8318"
       y2="18.728"
       xlink:href="#linearGradient8303"
       gradientUnits="userSpaceOnUse"
       x2="36.52"
       gradientTransform="scale(.85424 1.1706)"
       y1="146.62"
       x1="138.23" />
    <linearGradient
       id="linearGradient9086"
       y2="140.45"
       xlink:href="#linearGradient8303"
       gradientUnits="userSpaceOnUse"
       x2="146.4"
       gradientTransform="scale(.85537 1.1691)"
       y1="17.153"
       x1="22.029" />
    <pattern
       id="pattern10642"
       width="14.142157"
       patternUnits="userSpaceOnUse"
       patternTransform="translate(15 -5)"
       height="13.750009">
      <g
         id="g10644"
         style="fill:#ffffff"
         transform="translate(31.25 -2.9289)">
        <rect
           id="rect10646"
           transform="rotate(45)"
           height="5"
           width="5"
           y="21.668"
           x="-17.526" />
        <rect
           id="rect10648"
           transform="rotate(45)"
           height="5"
           width="5"
           y="26.391"
           x="-12.803" />
        <rect
           id="rect10650"
           transform="rotate(45)"
           height="5"
           width="5"
           y="16.668"
           x="-12.526" />
        <rect
           id="rect10652"
           transform="rotate(45)"
           height="5"
           width="5"
           y="21.391"
           x="-7.8033" />
      </g>
    </pattern>
  </defs>
  <g
     id="g5630"
     inkscape:export-filename="back.png"
     inkscape:export-xdpi="101.5873"
     inkscape:export-ydpi="101.5873">
    <path
       id="rect2070"
       style="fill-opacity:.49804;fill:#000000"
       d="m21 5h103c8.86 0 16 7.136 16 16v153c0 8.86-7.14 16-16 16h-103c-8.864 0-16-7.14-16-16v-153c0-8.864 7.136-16 16-16z" />
    <path
       id="rect1300"
       style="fill:#ffffff"
       d="m17 1h103c8.86 0 16 7.136 16 16v153c0 8.86-7.14 16-16 16h-103c-8.864 0-16-7.14-16-16v-153c0-8.864 7.136-16 16-16z" />
    <path
       id="path5624"
       style="fill:#c7891f"
       d="m19 3h103c8.86 0 16 7.136 16 16v153c0 8.86-7.14 16-16 16h-103c-8.864 0-16-7.14-16-16v-153c0-8.864 7.136-16 16-16z" />
    <path
       id="rect1306"
       style="fill:url(#linearGradient4853)"
       d="m18 2h103c8.86 0 16 7.136 16 16v153c0 8.86-7.14 16-16 16h-103c-8.864 0-16-7.14-16-16v-153c0-8.864 7.136-16 16-16z" />
  </g>
  <path
     id="path1385"
     style="fill:url(#linearGradient8318)"
     d="m22.167 10h94.413c8.13 0 14.67 6.541 14.67 14.667v140.25c0 8.12-6.54 14.66-14.67 14.66h-94.413c-8.126 0-14.667-6.54-14.667-14.66v-140.25c0-8.129 6.541-14.67 14.667-14.67z" />
  <path
     id="path9846"
     style="fill:url(#pattern10642)"
     d="m22.167 10h94.413c8.13 0 14.67 6.541 14.67 14.667v140.25c0 8.12-6.54 14.66-14.67 14.66h-94.413c-8.126 0-14.667-6.54-14.667-14.66v-140.25c0-8.129 6.541-14.67 14.667-14.67z" />
  <path
     id="path2154"
     style="fill:url(#linearGradient9086)"
     d="m22.156 9.375c-8.461 0-15.281 6.82-15.281 15.281v140.25c0 8.46 6.82 15.31 15.281 15.31h94.434c8.46 0 15.29-6.85 15.29-15.31v-140.25c0-8.465-6.83-15.285-15.29-15.285h-94.434zm0 1.25h94.434c7.79 0 14.03 6.241 14.03 14.031v140.25c0 7.79-6.24 14.06-14.03 14.06h-94.434c-7.79 0-14.031-6.27-14.031-14.06v-140.25c0-7.794 6.241-14.035 14.031-14.035z" />
  <metadata
     id="metadata1">
    <rdf:RDF>
      <cc:Work>
        <dc:format>image/svg+xml</dc:format>
        <dc:type
           rdf:resource="http://purl.org/dc/dcmitype/StillImage" />
        <cc:license
           rdf:resource="http://creativecommons.org/licenses/publicdomain/" />
        <dc:publisher>
          <cc:Agent
             rdf:about="http://openclipart.org/">
            <dc:title>Openclipart</dc:title>
          </cc:Agent>
        </dc:publisher>
        <dc:title>Card backs: grid blue</dc:title>
        <dc:date>2009-03-23T13:56:40</dc:date>
        <dc:description>playing card backs for the &quot;Ornamental&quot;, &quot;White&quot;, &quot;Simple&quot; and &quot;Bordered&quot; sets</dc:description>
        <dc:source>https://openclipart.org/detail/23034/card-backs:-grid-blue-by-nicubunu</dc:source>
        <dc:creator>
          <cc:Agent>
            <dc:title>nicubunu</dc:title>
          </cc:Agent>
        </dc:creator>
        <dc:subject>
          <rdf:Bag>
            <rdf:li>bordered deck</rdf:li>
            <rdf:li>card</rdf:li>
            <rdf:li>cards</rdf:li>
            <rdf:li>deck</rdf:li>
            <rdf:li>gambling</rdf:li>
            <rdf:li>game</rdf:li>
            <rdf:li>ornamental deck</rdf:li>
            <rdf:li>play</rdf:li>
            <rdf:li>playing cards</rdf:li>
            <rdf:li>simple deck</rdf:li>
            <rdf:li>white deck</rdf:li>
          </rdf:Bag>
        </dc:subject>
      </cc:Work>
      <cc:License
         rdf:about="http://creativecommons.org/licenses/publicdomain/">
        <cc:permits
           rdf:resource="http://creativecommons.org/ns#Reproduction" />
        <cc:permits
           rdf:resource="http://creativecommons.org/ns#Distribution" />
        <cc:permits
           rdf:resource="http://creativecommons.org/ns#DerivativeWorks" />
      </cc:License>
    </rdf:RDF>
  </metadata>
</svg>
